!!!OTL: 163e. Vogelhochzeit.
!!!ODT: 1845
!!!ARE: Europa, Mitteleuropa, Deutschland, Danzig, Neuhof
!!!SCT: E0163C
!!!TXL: @@DE
!!!YEM: Copyright 1995, estate of Helmut Schaffrath.
**kern	**text
*ICvox	*
*M2/4	*
*k[]	*
*C:	*
!LO:TX:a:t=Heiter.	!
!LO:TX:a:t=Aus Neuhof bei Danʒig 1845.	!
{8g	Der
=1	=1
4g	Sper-
8a	-ling,
8b	der
=2	=2
4cc	Sper-
8e}	-ling,
{8a	der
=3	=3
8g	gibt
8f	der
8e	Braut
8d	den
=4	=4
4e	Trau-
8c}	-ring.
{8c	Der
=5	=5
4g^^	Aur-
8a	-hahn,
8b	der
=6	=6
4cc	Aur-
8e}	-hahn,
{8a	der
=7	=7
8g	iſt
8e	der
8f	Kü-
8d	-ſter
=8	=8
8c	und
8c	Kap-
8c}	-lan.
{8c	Die
=9	=9
4d^^	En-
8e	-te,
8f#	die
=10	=10
4g^^	En-
8g}	-te,
{8g	die
=11	=11
8dd	war
8cc	der
8b	Sup-
8a	-rin-
=12	=12
(8g	-den-
8fn)	.
8e}	-te.
{8c	Der
=13	=13
8g	ſchwar-
8g	-ʒe
8a	Ra-
8a	-be
=14	=14
8b	war
8b	der
8cc}	Koch,
{8a	das
=15	=15
8g	ſieht
8e	man
8f	an
8d	den
=16	=16
8c	Fe-
8c	-dern
8c}	noch.
==	==
!!!AGN: erzaehlendes Volks - Lied, Sage, Tier - Maerchen, Ballade ?
!!!ONB: ESAC (Essen Associative Code) Database: ERK1
!!!AMT: simple duple
!!!AIN: vox
!!!EED: Helmut Schaffrath
!!!EEV: 1.0
!!!GTL: Thiersage und Pflanzenmaerchen
!!!URL-scan: https://rosdok.uni-rostock.de/mcrviewer/recordIdentifier/rosdok_ppn745146120/iview2/phys_0579.iview2?x=81.16084574254&y=108.54024511994794&scale=0.6828302752574625&rotation=0&layout=singlePageLayout
!!!ENC: Anna Maria Matuszewska
!!!EEV: 2024/04/12
*-	*-
